X: 11459
T: Ebb Tide, The
R: hornpipe
M: 4/4
K: Gmajor
|:dc|BcAB GABc|d2G2G2 bg|fdcA BcdB|cABG =F2dc|
BcAB GABc|defd gfge|fdcA BdAc|B2G2G2:|
|:ga|bgdB gdBG|DGBd gdbg|aBcA =fAcA|=FAcA =fAcA|
BcAB GABc|defd gfge|fdcA BdAc|B2G2G2:|

